!!!ONB: MCCC : ILB0168_01 : Extracted Monophonic Melody
!!!COM: Beethoven, Ludwig van
!!!OPR: Piano Sonata No.7
!!!OMV: 1
!!!SCT: Op.10 No.3
!!!ODT: 1797///
**kern
*thru
*Ipiano
*staff1
*>A
*clefG2
*k[f#c#]
*D:
*M4/4
*MM240
4d
=1
4c#
4B
4A
4c#
=2
4d
4f#
4a
4cc#
=3
4dd
4ee
4ff#
4gg
=4
2.aa
4dd
=5
4cc#
4b
4a
4aa
=6
2.aa
4g
=7
4f#
4e
4d
4dd
=8
4dd
4cc#
4dd
4dd#[
=9
4dd#]
4ee
4cc#
4a
=10
4dd
4r
4r
8ff#
8ddd
=11
8ee
8ccc#
8dd
8bb
8cc#
8aa
8dd
8bb
=12
8cc#
8aa
8b
8gg
8a
8ff#
8b
8gg
=13
8a
8ff#
8g
8ee
8f#
8dd
8g
8ee
=14
8f#
8dd
8f#
8dd#
8g
8ee
8a
8ff#
=15
8b
8gg
8ff#
8aa
8gg
8bb
4cc#
=16
4dd
4r
4r
8r
8d
=17
8r
8c#
8r
8B
8r
8A
8r
8c#
=18
8r
8d
8r
8f#
8r
8a
8r
8cc#
=19
8r
8dd
8r
8ee
8r
8ff#
8r
8gg
=20
8r
8aa
8r
8aa#
8r
8bb
8r
8ccc#
=21
4ddd
4r
4eee
4r
=22
2.fff#
4f#
=23
2dd
2ff#
=24
2dd
8ee
8dd
8cc#
8b
=25
4a#
4a#
8cc#
8b
8a#
8b
=26
2cc#
4f#
4f#
=27
2dd
2ff#
=28
2dd
8ee
8dd
8cc#
8b
=29
4a
4a
8a
8g#
8f#
8g#
=30
4f#
4r
4r
4c#
=31
8g#
8c#
8e#
8g#
8a
8c#
8f#
8a
=32
8b
8c#
8e#
8g#
8cc#
8b
8a
8g#
=33
8a
8f#
8e#
8f#
8b
8f#
8e#
8f#
=34
8cc#
8a
8g#
8a
8b
8a
8g#
8a
=35
8b
8e
8g#
8b
8cc#
8e
8a
8cc#
=36
8dd
8e
8g#
8b
8ee
8dd
8cc#
8b
=37
8cc#
8a
8g#
8a
8dd
8a
8g#
8a
=38
8ee
8a
8g#
8a
8b
8cc#
8dd
8ee
=39
[1ff#
=40
8ff#]
8ff#
8ee#
8ff#
8gg#
8aa
8bb
8ccc#
=41
[1ddd
=42
1ddd]
=43
1ccc#
=44
1bb
=45
4aa
8gg#
8ff#
8ee
8dd#
8cc#
8b
=46
8a
8g#
8f#
8e
8d#
8c#
8B
8A
=47
8G#
8F#
8E
8F#
8G#
8A
8B
8c#
=48
8d
8c#
8B
8c#
8d
8e
8f#
8g#
=49
8a
8a#
8b
8b#
8cc#
8dd
8dd#
8ee
=50
8ee#
8ff#
8gg
8gg#
8aa
8aa#
8bb
8bb#
=51
6ccc#
6ddd
6ddd#
4eee
4a
=52
1b
=53
4a
4r
4cc#
8b
8a
=54
4g#
4e
4cc#
8b
8a
=55
4dd#
4ee
4cc#
8b
8a
=56
4g#
4e
4ff#
4f#
=57
4dd
4d
4b
4B
=58
4g#
4G#
4a
4A
=59
4d
4r
4e
4r
=60
4A
4r
4ccc
8bb
8aa
=61
4gg#
4ee
4ccc
8bb
8aa
=62
4ddd#
4eee
4ccc
8bb
8aa
=63
4gg#
4ee
4fff
4ff
=64
4ddd
4dd
4bb
4b
=65
4gg#
4g#
2r
=66
2r
4r
4ee[
=67
4ee]
2bb
4aa
=68
4ee
2bb
4aa
=69
2b
2b
=70
8cc#
8dd
8cc#
8b
4a
[4e
=71
2.e]
[4e
=72
2.e]
4c#
=73
2.d
4c#
=74
2.d
4B
=75
4c
4d
4e
4g[
=76
2.g]
4ff
=77
4ee
4dd
4cc
4gg[
=78
2.gg]
4c#
=79
4d
4e
4f
4a[
=80
2.a]
[4gg
=81
4gg]
4ee
4dd
4aa[
=82
2.aa]
4f[
=83
2.f]
[4ff
=84
2.ff]
4aa
=85
4bb-
4ccc
2ddd[
=86
2ddd]
2bb
=87
1eee
=88
1aa
=89
1ddd
=90
1b
=91
2.ee
4dd[
=92
4dd]
2cc#
4g#
=93
4a
4r
4r
4aa
=94
4gg
4ee
4aa
4gg
=95
4ff#
4ee
4dd
4cc#
=96
4dd
4b
4ee
4dd
=97
8cc#
8a
8g#
8a
8b
8a
8g#
8a
=98
8B
8b
8a#
8b
8c#
8cc#
8b#
8cc#
=99
8d
8dd
8cc#
8dd
8e
8ee
8dd#
8ee
=100
8f#
8ff#
8ee#
8ff#
8g#
8gg#
8ff##
8gg#
=101
8a
8aa
8gg#
8aa
8bb
8aa
8gg#
8aa
=102
8b
8bb
8aa#
8bb
8cc#
8ccc#
8bb#
8ccc#
=103
8dd
8ddd
8ccc#
8ddd
8ee
8eee
8ddd#
8eee
=104
8ff#
8eee
8ddd#
8eee
8gg#
8eee
8ddd#
8eee
=105
4aa
4r
2ee
=106
2ff#
2b
=107
2ee
2a#
=108
2dd
2g#
=109
2a
2e#
=110
2f#
2B
=111
2e
2A#
=112
1r
=113
2r
2r
=114
2r
4r
4eee
=115
4ccc#
4bb
4aa
4r
=116
2r
4r
4ee
=117
4aa
4bb
4ccc#
4r
=118
2r
4r
4ee
=119
4cc#
4b
4a
4r
=120
2r
4r
4A
=121
4G
4F#
4E
4r
=122
2r
4r
4aa
=123
4gg
4ff#
4ee
4r
=124
2r
4r
*>A
*M4/4
4d
=125
4c#
4B
4A
4c#
=126
4d
4f#
4a
4cc#
=127
4dd
4ee
4ff#
4gg
=128
2.aa
4dd
=129
4cc#
4b
4a
4aa
=130
2.aa
4g
=131
4f#
4e
4d
4dd
=132
4dd
4cc#
4dd
4dd#[
=133
4dd#]
4ee
4cc#
4a
=134
4dd
4r
4r
8ff#
8ddd
=135
8ee
8ccc#
8dd
8bb
8cc#
8aa
8dd
8bb
=136
8cc#
8aa
8b
8gg
8a
8ff#
8b
8gg
=137
8a
8ff#
8g
8ee
8f#
8dd
8g
8ee
=138
8f#
8dd
8f#
8dd#
8g
8ee
8a
8ff#
=139
8b
8gg
8ff#
8aa
8gg
8bb
4cc#
=140
4dd
4r
4r
8r
8d
=141
8r
8c#
8r
8B
8r
8A
8r
8c#
=142
8r
8d
8r
8f#
8r
8a
8r
8cc#
=143
8r
8dd
8r
8ee
8r
8ff#
8r
8gg
=144
8r
8aa
8r
8aa#
8r
8bb
8r
8ccc#
=145
4ddd
4r
4eee
4r
=146
2.fff#
4f#
=147
2dd
2ff#
=148
2dd
8ee
8dd
8cc#
8b
=149
4a#
4a#
8cc#
8b
8a#
8b
=150
2cc#
4f#
4f#
=151
2dd
2ff#
=152
2dd
8ee
8dd
8cc#
8b
=153
4a
4a
8a
8g#
8f#
8g#
=154
4f#
4r
4r
4c#
=155
8g#
8c#
8e#
8g#
8a
8c#
8f#
8a
=156
8b
8c#
8e#
8g#
8cc#
8b
8a
8g#
=157
8a
8f#
8e#
8f#
8b
8f#
8e#
8f#
=158
8cc#
8a
8g#
8a
8b
8a
8g#
8a
=159
8b
8e
8g#
8b
8cc#
8e
8a
8cc#
=160
8dd
8e
8g#
8b
8ee
8dd
8cc#
8b
=161
8cc#
8a
8g#
8a
8dd
8a
8g#
8a
=162
8ee
8a
8g#
8a
8b
8cc#
8dd
8ee
=163
[1ff#
=164
8ff#]
8ff#
8ee#
8ff#
8gg#
8aa
8bb
8ccc#
=165
[1ddd
=166
1ddd]
=167
1ccc#
=168
1bb
=169
4aa
8gg#
8ff#
8ee
8dd#
8cc#
8b
=170
8a
8g#
8f#
8e
8d#
8c#
8B
8A
=171
8G#
8F#
8E
8F#
8G#
8A
8B
8c#
=172
8d
8c#
8B
8c#
8d
8e
8f#
8g#
=173
8a
8a#
8b
8b#
8cc#
8dd
8dd#
8ee
=174
8ee#
8ff#
8gg
8gg#
8aa
8aa#
8bb
8bb#
=175
6ccc#
6ddd
6ddd#
4eee
4a
=176
1b
=177
4a
4r
4cc#
8b
8a
=178
4g#
4e
4cc#
8b
8a
=179
4dd#
4ee
4cc#
8b
8a
=180
4g#
4e
4ff#
4f#
=181
4dd
4d
4b
4B
=182
4g#
4G#
4a
4A
=183
4d
4r
4e
4r
=184
4A
4r
4ccc
8bb
8aa
=185
4gg#
4ee
4ccc
8bb
8aa
=186
4ddd#
4eee
4ccc
8bb
8aa
=187
4gg#
4ee
4fff
4ff
=188
4ddd
4dd
4bb
4b
=189
4gg#
4g#
2r
=190
2r
4r
4ee[
=191
4ee]
2bb
4aa
=192
4ee
2bb
4aa
=193
2b
2b
=194
8cc#
8dd
8cc#
8b
4a
[4e
=195
2.e]
[4e
=196
2.e]
4c#
=197
2.d
4c#
=198
2.d
4B
=199
4c
4d
4e
4g[
=200
2.g]
4ff
=201
4ee
4dd
4cc
4gg[
=202
2.gg]
4c#
=203
4d
4e
4f
4a[
=204
2.a]
[4gg
=205
4gg]
4ee
4dd
4aa[
=206
2.aa]
4f[
=207
2.f]
[4ff
=208
2.ff]
4aa
=209
4bb-
4ccc
2ddd[
=210
2ddd]
2bb
=211
1eee
=212
1aa
=213
1ddd
=214
1b
=215
2.ee
4dd[
=216
4dd]
2cc#
4g#
=217
4a
4r
4r
4aa
=218
4gg
4ee
4aa
4gg
=219
4ff#
4ee
4dd
4cc#
=220
4dd
4b
4ee
4dd
=221
8cc#
8a
8g#
8a
8b
8a
8g#
8a
=222
8B
8b
8a#
8b
8c#
8cc#
8b#
8cc#
=223
8d
8dd
8cc#
8dd
8e
8ee
8dd#
8ee
=224
8f#
8ff#
8ee#
8ff#
8g#
8gg#
8ff##
8gg#
=225
8a
8aa
8gg#
8aa
8bb
8aa
8gg#
8aa
=226
8b
8bb
8aa#
8bb
8cc#
8ccc#
8bb#
8ccc#
=227
8dd
8ddd
8ccc#
8ddd
8ee
8eee
8ddd#
8eee
=228
8ff#
8eee
8ddd#
8eee
8gg#
8eee
8ddd#
8eee
=229
4aa
4r
2ee
=230
2ff#
2b
=231
2ee
2a#
=232
2dd
2g#
=233
2a
2e#
=234
2f#
2B
=235
2e
2A#
=236
1r
=237
2r
2r
=238
2r
4r
4eee
=239
4ccc#
4bb
4aa
4r
=240
2r
4r
4ee
=241
4aa
4bb
4ccc#
4r
=242
2r
4r
4ee
=243
4cc#
4b
4a
4r
=244
2r
4r
4A
=245
4G
4F#
4E
4r
=246
2r
4r
4aa
=247
4gg
4ff#
4ee
4r
=248
2r
4r
*>B
4aa
=249
4gg
4ff
4ee
4r
=250
2r
4r
4A
=251
4G
4F
4E
4r
=252
2r
4r
4d
=253
4c#
4B
4A
4c#
=254
4d
4f
4a
4cc#
=255
4dd
4ee
4ff
4gg
=256
1aa
=257
*k[b-]
2.bb-
4ff
=258
4gg
4ee-
4ff
4dd
=259
4ee-
4cc
4dd
4b-
=260
4cc
4g
4a
4f
=261
2.b-
4f
=262
4g
4e-
4f
4d
=263
4e-
4c
4d
4B-
=264
4c
4G
4A
4F
=265
8B-
8d
8B-
8d
8B-
8d
8B-
8d
=266
8B-
8d
8B-
8d
8B-
8d
8B-
8d
=267
8B-
8d
8B-
8d
8B-
8d
8B-
8d
=268
8B-
8d
8B-
8d
8B-
8d
8B-
8d
=269
2r
4ff
4r
=270
2r
4ff#
4r
=271
4r
8r
8cc
[2ccc
=272
8ccc]
8bb-
8aa
8gg
8ff#
8ee-
8dd
8cc
=273
4b-
8B-
8d
8B-
8d
8B-
8d
=274
8B-
8d
8B-
8d
8B-
8d
8B-
8d
=275
8B-
8d
8B-
8d
8B-
8d
8B-
8d
=276
8B-
8d
8B-
8d
8B-
8d
8B-
8d
=277
2r
4gg
4r
=278
2r
4aa-
4r
=279
4r
8r
8ff
[2fff
=280
8fff]
8eee-
8ddd
8ccc
8bb-
8aa-
8gg
8ff
=281
4gg
8B-
8g
8B-
8g
8B-
8g
=282
8B-
8g
8B-
8g
8B-
8g
8B-
8g
=283
8B-
8g
8B-
8g
8B-
8g
8B-
8g
=284
8B-
8g
8B-
8g
8B-
8g
8B-
8g
=285
8A
8e
8g
8e
8A
8e
8g
8e
=286
8A
8e
8g
8e
8A
8e
8g
8e
=287
8A
8d
8f
8d
8A
8d
8f
8d
=288
8A
8d
8f
8d
8A
8d
8f
8d
=289
8G#
8d
8g#
8d
8G#
8d
8g#
8d
=290
8G#
8d
8g#
8d
8G#
8d
8g#
8d
=291
8A
8c#
8a
8c#
8A
8c#
8e
8c#
=292
8A
8c#
8e
8c#
8A
8c#
8e
8c#
=293
8A
8d
8f
8d
8A
8d
8f
8d
=294
8A
8d
8f
8d
8A
8d
8f
8d
=295
8A
8c#
8e
8c#
8A
8c#
8e
8c#
=296
8A
8c#
8e
8c#
8A
8c#
8e
8c#
=297
8A
8d
8f
8d
8A
8d
8f
8d
=298
8A
8d
8f
8d
8A
8d
8f
8d
=299
8A
8c#
8e
8c#
8A
8c#
8e
8c#
=300
8A
8c#
8e
8c#
8A
8c#
8e
8c#
=301
8B
8d
8g
8d
8B
8d
8g
8d
=302
8B
8d
8g
8d
8B
8d
8g
8d
=303
8A
8e
8g
8e
8A
8e
8g
8e
=304
8A
8e
8g
8e
8A
8e
8g
8e
=305
8A
8e
8g
8e
8A
8e
8g
8e
=306
8A
8e
8g
8e
8A
8e
8g
8e
=307
2.g
*k[f#c#]
4d
=308
4c#
4B
4A
4c#
=309
4d
4f#
4a
4cc#
=310
4dd
4ee
4ff#
4gg
=311
2.aa
4dd
=312
4cc#
4b
4a
4aa
=313
2.aa
4g
=314
4f#
4e
4d
4dd
=315
4dd
4cc#
4dd
4dd#[
=316
4dd#]
4ee
4cc#
4a
=317
4dd
4r
4r
8ff#
8ddd
=318
8ee
8ccc#
8dd
8bb
8cc#
8aa
8dd
8bb
=319
8cc#
8aa
8b
8gg
8a
8ff#
8b
8gg
=320
8a
8ff#
8g
8ee
8f#
8dd#
8g
8ee
=321
8g
8ee
8f#
8dd#
8g
8ee
8gg
8eee
=322
8gg
8eee
8ff#
8ddd#
8gg
8eee
8gg
8eee
=323
8gg
8eee
8ff#
8eee
8ee
8eee
8dd#
8ddd#
=324
8ee
8eee
8dd#
8ddd#
8ee
8eee
8a#
8aa#
=325
8b
8dd#
8ff#
8bb
8aa
8gg
8ff#
8ee
=326
8dd#
8ff#
8aa#
8bb
8aa
8gg
8ff#
8ee
=327
8bb
8ff#
8dd#
8b
8f#
8d#
4r
=328
2r
4r
4b
=329
2gg
2bb
=330
2gg
8aa
8gg
8ff#
8ee
=331
4dd#
4dd#
8ff#
8ee
8dd#
8ee
=332
2ff#
4b
4b
=333
2gg
2bb
=334
2gg
8aa
8gg
8ff#
8ee
=335
4dd
4dd
8dd
8cc#
8b
8cc#
=336
4b
4r
4r
4f#
=337
8cc#
8f#
8a#
8cc#
8dd
8f#
8b
8dd
=338
8ee
8f#
8a#
8cc#
8ff#
8ee
8dd
8cc#
=339
8dd
8b
8a#
8b
8ee
8b
8a#
8b
=340
8ff#
8dd
8cc#
8dd
8ee
8dd
8cc#
8dd
=341
8ee
8a
8cc#
8ee
8ff#
8a
8dd
8ff#
=342
8gg
8a
8cc#
8ee
8aa
8gg
8ff#
8ee
=343
8ff#
8dd
8cc#
8dd
8gg
8dd
8cc#
8dd
=344
8aa
8dd
8cc#
8dd
8ee
8ff#
8gg
8aa
=345
2.bb
[4aa
=346
8aa]
8gg
8ff#
8gg
8aa
8bb
8ccc#
8ddd
=347
1eee
=348
[1ddd
=349
4ddd]
8ccc#
8bb
8aa
8gg#
8ff#
8ee
=350
8dd
8cc#
8b
8a
8g#
8f#
8e
8d
=351
8c#
8B
8A
8B
8c#
8d
8e
8f#
=352
8g
8f#
8e
8f#
8g
8a
8b
8cc#
=353
8dd
8ee-
8ee
8ff
8ff#
8gg
8gg#
8aa
=354
8bb-
8bb
8ccc
8ccc#
8ddd
8ccc#
8ddd
8ccc#
=355
8ddd
8aa
8ff#
8dd
8a
8f#
8d
8dd
=356
4A
4r
2e
=357
4d
4r
4f#
8e
8d
=358
4c#
4A
4f#
8e
8d
=359
4g#
4a
4f#
8e
8d
=360
4c#
4A
4ff#
4f#
=361
4dd
4d
4b
4B
=362
4g
4G
4g#
4G#
=363
4a
4A
4c#
4r
=364
4d
4r
4ff
8ee
8dd
=365
4cc#
4a
4ff
8ee
8dd
=366
4gg#
4aa
4ff
8ee
8dd
=367
4cc#
4a
4fff
4ff
=368
4ddd
4dd
4bb-
4b-
=369
4gg
4g
4ee
4e
=370
4cc#
4c#
2r
=371
2r
4r
4aa[
=372
4aa]
2eee
4ddd
=373
4aa
2eee
4ddd
=374
2ee
2ee
=375
8ff#
8gg
8ff#
8ee
4dd
[4a
=376
2.a]
[4a
=377
2.a]
4f#
=378
2.g
4f#
=379
2.g
4e
=380
4f
4g
4a
4cc[
=381
2.cc]
4bb-
=382
4aa
4gg
4ff
4ccc[
=383
2.ccc]
4f#
=384
4g
4a
4b-
4dd[
=385
2.dd]
4ccc
=386
4bb-
4aa
4gg
4ddd[
=387
2.ddd]
4d
=388
4e-
4f
4g
4dd
=389
4ee-
4ff
4gg
4dd
=390
4ee-
4ff
2gg[
=391
2gg]
2ee
=392
1aa
=393
1dd
=394
1gg
=395
1e
=396
2.a
4g[
=397
4g]
2f#
4c#
=398
4d
4r
4r
4ddd
=399
4ccc
4aa
4ddd
4ccc
=400
4bb
4aa
4gg
4ff#
=401
4gg
4ee
4aa
4gg
=402
8ff#
8d
8c#
8d
8e
8d
8c#
8d
=403
8E
8e
8d#
8e
8F#
8f#
8e#
8f#
=404
8G
8g
8f#
8g
8A
8a
8g#
8a
=405
8B
8b
8a#
8b
8c#
8cc#
8b#
8cc#
=406
8d
8dd
8cc#
8dd
8ee
8dd
8cc#
8dd
=407
8e
8ee
8dd#
8ee
8f#
8ff#
8ee#
8ff#
=408
8g
8gg
8ff#
8gg
8a
8aa
8gg#
8aa
=409
8b
8bb
8aa#
8bb
8cc#
8ccc#
8bb#
8ccc#
=410
4ddd
4r
2aa
=411
2bb
2ee
=412
2aa
2dd#
=413
2gg
2cc#
=414
2dd
2a#
=415
2b
2e
=416
2a
2d#
=417
2g
2c#
=418
1f#
=419
1e
=420
1d
=421
1c
=422
4B
4r
2r
=423
2r
4r
4ddd
=424
4bb
4aa
4gg
4r
=425
2r
4r
4dd
=426
4gg
4aa
4bb
4r
=427
2r
4r
4dd
=428
4b
4a
4g
4r
=429
2r
4r
4D
=430
4G
4A
4B
4r
=431
2r
4r
4dd
=432
4gg
4aa
4bb
4r
=433
2r
4r
4D
=434
4G
4A
4B-
4r
=435
2r
4r
4dd
=436
4gg
4aa
4bb-
4r
=437
2r
4r
4D
=438
4F
4G
4A-
4r
=439
2r
4r
4dd
=440
4ff
4gg
4aa-
4r
=441
2r
4r
4a-[
=442
2.a-]
4r
=443
2r
4r
4a-[
=444
2.a-]
4g#[
=445
2.g#]
4g#
=446
4d
4e
4f
4g[
=447
2.g]
4f#[
=448
2.f#]
4e
=449
2.g
[4c#
=450
2.c#]
4c#
=451
4d
4r
4r
4ddd
=452
4ccc#
4bb
4aa
[4aa
=453
2.aa]
4dd
=454
4cc#
4b
4a
[4a
=455
2.a]
4d
=456
4c#
4B
4A
4A
=457
8F#
8d
8A
8d
8F#
8f#
8d
8f#
=458
8F#
8f#
8d
8f#
8G
8g
8e
8g
=459
8A
8a
8f#
8a
8d
8dd
8f#
8dd
=460
8d
8dd
8f#
8dd
8e
8ee
8g
8ee
=461
8f#
8ff#
8a
8ff#
8f#
8ff#
8dd
8ff#
=462
8f#
8ff#
8dd
8ff#
8g
8gg
8ee
8gg
=463
8a
8aa
8ff#
8aa
8dd
8ddd
8ff#
8ddd
=464
8dd
8ddd
8ff#
8ddd
8ee
8ddd
8gg
8ddd
=465
8gg#
8ddd
8aa
8ddd
8ff#
8ddd
8gg
8ddd
=466
8gg#
8ddd
8aa
8ddd
8ff#
8ddd
8gg
8ddd
=467
4ddd
4r
4ddd
4r
=468
2r
4r
==
*-
